X:1
T:Title
%%score 1 2
L:1/8
M:3/2
K:C
V:1 treble-8 nm="Part_1"
V:2 bass nm="Part_2"
V:1
 e8 e4 | e4 d4 e4 | d8 c4 | B8 A4 | B8 G4 | B4 d4 c4 | B4 A4 G4 | A2 B3 A A4 ^G2 | A12 || A8 A4 | %10
 c4 B4 A4 | B8 c4 | d6 c2 B4 | c4 B2 A4 ^G2 | A12 || e4 d4 e4 | f8 e4 | e4 d2 c2 B2 A2 | B8 G4 | %19
 B8 c2 d2 | e8 A4 | B4 c4 d4 | c8 B4 | A8 ^G4 | A6 B2 c2 B2 | c4 B2 A4 ^G2 | A12 || e8 d4 | %28
 e4 f6 e2 | d6 c2 d2 B2 | d8 z4 | e8 d4 | e4 f4 e4 | e6 d2 d2 c2 | e12 || e4 e4 d4 | c8 A4 | %37
 B8 z4 | B4 c4 d4 | c8 B4 | A4 c6 B2 | B8 G4 | A4 c6 B2 | B6 A2 A2 ^G2 | A12 || e8 d4 | e8 e4 | %47
 e4 d4 e4 | f8 f4 | f4 e2 e4 d2 | e4 e6 d2 | d6 ^c2 c2 B2 | d8 z4 | e8 e4 | d6 ^c2 c2 B2 | %55
 d4 z4 z4 | e8 d4 | e8 f4 | e8 d4 | f4 e2 e4 d2 | e12 || e8 e4 | d4 d4 c2 B2 | d8 z4 | d4 c4 B4 | %65
 A6 ^G2 G4 | A8 z4 | A4 B4 c4 | d8 c4 | A6 c2 B2 A2 | c8 A4 | c4 B2 A4 ^G2 | A12 || e8 e4 | %74
 d4 c2 B4 A2 | B8 z4 | B4 B4 B4 | A8 ^G4 | A12 | c8 B4 | c4 d8 | c4 B2 A4 ^G2 | A12 || z4 G4 B4 | %84
 d4 e6 d2 | c2 B4 A4 ^G2 | A8 z4 | c8 c4 | B4 A4 ^G4 | A8 z4 | c8 c4 | B4 A4 ^G4 | A8 z4 | c8 c4 | %94
 B2 c4 A2 B4 | c4 B2 A4 G2 | A4 c2 d2 e4- | e2 d2 d6 c2 | c2 B2 A4 ^G4 | A12 |] %100
V:2
 E,8 E,4 | G,4 F,4 E,4 | F,8 E,4 | B,,4 D,4 C,4 | B,,8 B,,4 | D,4 F,4 E,4 | D,4 C,4 B,,4 | %7
 A,,2 D,2 C,2 A,,2 B,,4 | A,,12 || A,,8 A,,4 | E,4 D,4 C,4 | B,,8 E,4 | D,8 D,4 | %13
 E,4 D,2 C,2 B,,4 | A,,12 || E,4 F,4 G,4 | A,8 G,4 | E,4 F,2 E,2 D,2 C,2 | B,,8 B,,4 | D,8 F,4 | %20
 E,8 C,4 | B,,4 E,4 D,2 F,2 | E,8 D,4 | C,4 B,,8 | A,,4 C,2 D,2 E,2 D,2 | E,4 D,2 C,2 B,,4 | %26
 A,,12 || E,8 F,4 | G,4 A,8 | F,4 E,8 | D,4 z4 F,4 | G,8 F,4 | E,4 A,4 G,4 | E,6 G,2 F,4 | E,12 || %35
 G,4 G,4 F,4 | E,4 E,4 C,4 | B,,8 C,4 | D,4 E,4 F,4 | E,8 D,4 | A,,4 E,8 | D,4 B,,8 | C,4 E,8 | %43
 D,4 C,2 A,,2 B,,4 | A,,12 || E,4 G,4 F,4 | E,8 G,4- | G,4 F,4 G,4 | A,8 F,4 | A,4 G,2 E,2 F,4 | %50
 E,8 G,4 | F,4 E,6 D,2 | D,6 E,2 F,4 | G,8 G,4 | F,4 E,8 | D,4 z4 z4 | G,8 F,4 | E,4 G,4 A,4 | %58
 G,6 E,2 F,2 G,2 | A,4 G,2 E,2 F,4 | E,12 || G,8 G,4 | F,4 F,4 E,4 | D,8 F,4 | F,4 E,4 D,4 | %65
 C,8 B,,4 | A,,8 C,4- | C,4 D,4 E,4 | D,4 F,4 E,4 | A,,4 C,2 E,2 D,4 | C,8 C,4 | E,4 D,2 C,2 B,,4 | %72
 A,,12 || E,8 G,4 | F,4 E,2 D,2 C,4 | B,,8 C,4 | D,4 D,4 D,4 | C,6 A,,2 B,,4 | A,,12 | E,8 D,4 | %80
 C,4 F,8 | E,4 D,2 C,2 B,,4 | A,,12 || G,,4 B,,4 D,4 | F,4 E,4 G,2 F,2 | E,2 D,4 C,2 B,,4 | %86
 A,,8 C,4 | E,8 C,4 | D,4 C,2 A,,2 B,,4 | A,,8 C,4 | E,8 C,4 | D,4 C,2 A,,2 B,,4 | A,,8 A,,4 | %93
 E,4 E,8 | D,2 E,2 C,4 D,4 | E,4 D,2 C,2 B,,4 | A,,4 E,2 F,2 G,4- | G,4 F,8 | %98
 E,2 D,2 C,2 A,,2 B,,4 | A,,12 |] %100

